X: 4
T:Tuttle's Reel
M:4/4
L:1/8
C:Trad.
K:C
|:G,|A,DDE FEFG|AcGc (3Add dG,|A,DDE F2 Ad|(3cAA GE FDDG,|
A,DDE FEFG|AcGc (3Add de|fd (3ddd dcAB|cAGE FD D:|
|:A|(3c^cd dA =c2 cA|(3c^cd dA =cAGA|(3ccc dA cAGD|(3EEE cE EDDA|
(3c^cd dA =c2 cA|(3cdd dA c2 de|fd (3ddd dcAB|BAGE FD D:|

